Catalina-light/actions/16/cm_viewhistoryprev.svg

<svg xmlns="http://www.w3.org/2000/svg" width="16" height="16" viewBox="0 0 16 16">
 <defs>
  <style id="current-color-scheme" type="text/css">
   .ColorScheme-Text { color:#5c616c; } .ColorScheme-Highlight { color:#5294e2; }
  </style>
 </defs>
 <path style="fill:currentColor" class="ColorScheme-Text" d="M 2 1 C 0.892 1 0 1.892 0 3 L 0 13 C 0 14.108 0.892 15 2 15 L 12 15 C 13.108 15 14 14.108 14 13 L 14 9.9941406 L 12 10 L 12 13 L 2 13 L 2 3 L 12 3 L 12 6 L 14 5.9941406 L 14 3 C 14 1.892 13.108 0.99998 12 1 L 2 1 z M 7.7890625 4 L 3.7890625 8 L 7.7890625 12.041016 L 9.1757812 10.654297 L 7.5410156 9.0214844 L 15.001953 9 L 15.001953 7 L 7.5410156 7.0214844 L 9.1757812 5.3867188 L 7.7890625 4 z"/>
</svg>

<svg width="16" height="16" viewBox="0 0 16 16" xmlns="http://www.w3.org/2000/svg">
<defs>
<style id="current-color-scheme" type="text/css">.ColorScheme-Text { color:#5c616c; } .ColorScheme-Highlight { color:#5294e2; }</style>
</defs>
<path class="ColorScheme-Text" d="m2 1c-1.108 0-2 0.892-2 2v10c0 1.108 0.892 2 2 2h10c1.108 0 2-0.892 2-2v-3.0059l-2 0.0058594v3h-10v-10h10v3l2-0.0058594v-2.9941c0-1.108-0.892-2-2-2h-10zm5.7891 3-4 4 4 4.041 1.3867-1.3867-1.6348-1.6328 7.4609-0.021484v-2l-7.4609 0.021484 1.6348-1.6348-1.3867-1.3867z" fill="currentColor"/>
</svg>
